X:1
T:Deeper Yet
T:Deeper Yet
T:William James Kirkpatrick
T:Johnson Oatman, Jr., 1896
T:Public Domain Courtesy of the Cyber Hymnal™
C:William James Kirkpatrick
Z:Public Domain
Z:Courtesy of the Cyber Hymnal™
%%score 1 ( 2 3 )
L:1/8
Q:1/4=110
M:6/8
K:A
V:1 treble 
V:2 bass 
V:3 bass 
V:1
 [CE]2 [CE] [CE]3 | [EA]2 [EA] [EA]3 | [EB][EB][EB] [EA]2 [EB] | [Ec]3- [Ec]2 z | %4
w: 1.~In the blood|from the cross,|I have been washed from|sin; *|
w: 2.~Day by day,|hour by hour,|Bless- ings are sent to|me; *|
w: 3.~Near to Christ|I would live,|Fol- low- ing Him each|day; *|
w: 4.~Now I have|peace, sweet peace,|While in this world of|sin; *|
 [CE]2 [CE] [CE]3 | [EA]2 [EA] [EA]3 | [FB][Ec][Dd] [Ec]2 [DB] | [CA]3- [CA]2 z || %8
w: But to be|free from dross,|Still I would en- ter|in. *|
w: But for more|of His power,|Ev- er my prayer shall|be. *|
w: What I ask|He will give;|So then with faith I|pray. *|
w: But to pray|I’ll not cease|Till I am pure with-|in. *|
"^Refrain" [Ec]2 [DB] [CA]3 | [DA]2 [DG] [DF]3 | [CE][CE][CE] [EA]2 [Ec] | [EB]6 | %12
w: ||||
w: ||||
w: ||||
w: ||||
 [Ec]2 [DB] [CA]3 | [DA]2 [DG] [DF]3 | [CE][CE][CE] [DF]2 [DG] | [CA]6 |] %16
w: ||||
w: ||||
w: ||||
w: ||||
V:2
 [A,,A,]2 [A,,A,] [A,,A,]3 | [A,C]2 [A,C] [A,C]3 | [E,G,][E,G,][E,G,] [E,F,]2 [E,G,] | A,3- A,2 z | %4
w: ~ ~ ~|~ ~ ~|~ ~ ~ ~ ~|~ *|
 [A,,A,]2 [A,,A,] [A,,A,]3 | [A,C]2 [A,C] [A,C]3 | [D,A,][C,^A,][B,,B,] [E,=A,]2 [E,G,] | %7
w: ~ ~ ~|~ ~ ~|~ ~ ~ ~ ~|
 [A,,A,]3- [A,,A,]2 z || [A,,A,]2 [A,,E,] [A,,E,]3 | [D,F,]2 [D,G,] [D,A,]3 | %10
w: ~ *|Deep- er yet,|deep- er yet,|
 [A,,A,][A,,A,][A,,A,] [C,A,]2 [A,,A,] | [E,G,]6 | [A,,A,]2 [A,,E,] [A,,E,]3 | %13
w: In- to the crim- son|flood;|Deep- er yet,|
 [D,F,]2 [D,G,] [D,A,]3 | [E,A,][E,A,][E,A,] [E,B,]2 [E,B,] | [A,,A,]6 |] %16
w: deep- er yet,|Un- der the pre- cious|blood.|
V:3
 x6 | x6 | x6 | A,3- A,2 x | x6 | x6 | x6 | x6 || x6 | x6 | x6 | x6 | x6 | x6 | x6 | x6 |] %16

